common/svg/headset-icon.svg

<svg fill="none" height="20" viewBox="0 0 20 20" width="20" xmlns="http://www.w3.org/2000/svg"><g fill="#000"><path d="m16.0852 19.5598h-4.7812v-.8694h4.7812c.5762-.0007 1.1286-.2299 1.536-.6373s.6367-.9598.6374-1.536v-3.0426h.8693v3.0426c-.0009.8067-.3218 1.5801-.8922 2.1505s-1.3438.8912-2.1505.8922z"/><path d="m9.64791.00640346c-4.93951.18690454-8.77584 4.40226654-8.77584 9.34565654v4.99164c0 .5764.22898 1.1292.63652 1.5368.4076.4076.96037.6365 1.53679.6365h1.30399c.34582 0 .6775-.1373.92207-.3819.24451-.2445.38192-.5762.38192-.9221v-4.3466c0-.3458-.13741-.6775-.38192-.92199-.24457-.24457-.57625-.38198-.92207-.38198h-2.17331v-.24254c0-4.23709 3.28819-7.85041 7.52227-8.01037 1.05177-.03941 2.10077.13353 3.08417.50856.9835.37508 1.8812.94449 2.6397 1.67426.7584.72977 1.362 1.60489 1.7746 2.57315.4127.96825.626 2.00976.6271 3.06228v.43466h-2.608c-.3458 0-.6775.13741-.922.38198-.2445.24449-.3819.57619-.3819.92199v4.3466c0 .3459.1374.6776.3819.9221.2445.2446.5762.3819.922.3819h1.7387c.5764 0 1.1292-.2289 1.5367-.6365.4076-.4076.6366-.9604.6366-1.5368v-5.21593c-.0013-1.22795-.2502-2.44304-.7316-3.57264-.4815-1.12966-1.1857-2.15065-2.0706-3.00207-.8848-.85136-1.9322-1.51569-3.0796-1.953255-1.1473-.43756-2.3711-.6393599-3.59819-.59340154z"/><path d="m4.78403 9.56238c.34582 0 .6775.13741.92207.38192.24451.2446.38192.5762.38192.9221v4.3466c0 .3458-.13741.6775-.38192.9221-.24457.2445-.57625.3819-.92207.3819h-1.73865c-.57642 0-1.12919-.229-1.53679-.6365-.40754-.4076-.63652-.9604-.63652-1.5368v-4.78132z"/><path d="m4.78406 9.56238h-.86933v6.95462h.86933c.34582 0 .67749-.1374.92206-.3819.24452-.2446.38193-.5763.38193-.9221v-4.3466c0-.3459-.13741-.6775-.38193-.9221-.24457-.24451-.57624-.38192-.92206-.38192z"/><path d="m15.2159 9.56238c-.3458 0-.6775.13741-.922.38192-.2446.2446-.382.5762-.382.9221v4.3466c0 .3458.1374.6775.382.9221.2445.2445.5762.3819.922.3819h1.7387c.5764 0 1.1292-.229 1.5368-.6365.4075-.4076.6365-.9604.6365-1.5368v-4.78132z"/><path d="m15.2159 9.56238h.8693v6.95462h-.8693c-.3458 0-.6775-.1374-.922-.3819-.2446-.2446-.382-.5763-.382-.9221v-4.3466c0-.3459.1374-.6775.382-.9221.2445-.24451.5762-.38192.922-.38192z"/><path d="m14.3018 17.8158h-4.30183c-.24005 0-.43466.1946-.43466.4347v1.3148c0 .2401.19461.4347.43466.4347h4.30183c.2401 0 .4347-.1946.4347-.4347v-1.3148c0-.2401-.1946-.4347-.4347-.4347z"/></g></svg>

<svg width="20" height="20" viewBox="0 0 20 20" fill="none" xmlns="http://www.w3.org/2000/svg">
<path d="M16.0852 19.5598H11.304V18.6904H16.0852C16.6614 18.6897 17.2138 18.4605 17.6212 18.0531C18.0286 17.6457 18.2579 17.0933 18.2586 16.5171V13.4745H19.1279V16.5171C19.127 17.3238 18.8061 18.0972 18.2357 18.6676C17.6653 19.238 16.8919 19.5588 16.0852 19.5598Z" fill="black"/>
<path d="M9.64791 0.00640346C4.7084 0.193308 0.87207 4.40867 0.87207 9.35206V14.3437C0.87207 14.9201 1.10105 15.4729 1.50859 15.8805C1.91619 16.2881 2.46896 16.517 3.04538 16.517H4.34937C4.69519 16.517 5.02687 16.3797 5.27144 16.1351C5.51595 15.8906 5.65336 15.5589 5.65336 15.213V10.8664C5.65336 10.5206 5.51595 10.1889 5.27144 9.94441C5.02687 9.69984 4.69519 9.56243 4.34937 9.56243H2.17606V9.31989C2.17606 5.0828 5.46425 1.46948 9.69833 1.30952C10.7501 1.27011 11.7991 1.44305 12.7825 1.81808C13.766 2.19316 14.6637 2.76257 15.4222 3.49234C16.1806 4.22211 16.7842 5.09723 17.1968 6.06549C17.6095 7.03374 17.8228 8.07525 17.8239 9.12777V9.56243H15.2159C14.8701 9.56243 14.5384 9.69984 14.2939 9.94441C14.0494 10.1889 13.912 10.5206 13.912 10.8664V15.213C13.912 15.5589 14.0494 15.8906 14.2939 16.1351C14.5384 16.3797 14.8701 16.517 15.2159 16.517H16.9546C17.531 16.517 18.0838 16.2881 18.4913 15.8805C18.8989 15.4729 19.1279 14.9201 19.1279 14.3437V9.12777C19.1266 7.89982 18.8777 6.68473 18.3963 5.55513C17.9148 4.42547 17.2106 3.40448 16.3257 2.55306C15.4409 1.7017 14.3935 1.03737 13.2461 0.599805C12.0988 0.162245 10.875 -0.0395549 9.64791 0.00640346Z" fill="black"/>
<path d="M4.78403 9.56238C5.12985 9.56238 5.46153 9.69979 5.7061 9.9443C5.95061 10.1889 6.08802 10.5205 6.08802 10.8664V15.213C6.08802 15.5588 5.95061 15.8905 5.7061 16.1351C5.46153 16.3796 5.12985 16.517 4.78403 16.517H3.04538C2.46896 16.517 1.91619 16.288 1.50859 15.8805C1.10105 15.4729 0.87207 14.9201 0.87207 14.3437V9.56238H4.78403Z" fill="black"/>
<path d="M4.78406 9.56238H3.91473V16.517H4.78406C5.12988 16.517 5.46155 16.3796 5.70612 16.1351C5.95064 15.8905 6.08805 15.5588 6.08805 15.213V10.8664C6.08805 10.5205 5.95064 10.1889 5.70612 9.9443C5.46155 9.69979 5.12988 9.56238 4.78406 9.56238Z" fill="black"/>
<path d="M15.2159 9.56238C14.8701 9.56238 14.5384 9.69979 14.2939 9.9443C14.0493 10.1889 13.9119 10.5205 13.9119 10.8664V15.213C13.9119 15.5588 14.0493 15.8905 14.2939 16.1351C14.5384 16.3796 14.8701 16.517 15.2159 16.517H16.9546C17.531 16.517 18.0838 16.288 18.4914 15.8805C18.8989 15.4729 19.1279 14.9201 19.1279 14.3437V9.56238H15.2159Z" fill="black"/>
<path d="M15.2159 9.56238H16.0852V16.517H15.2159C14.8701 16.517 14.5384 16.3796 14.2939 16.1351C14.0493 15.8905 13.9119 15.5588 13.9119 15.213V10.8664C13.9119 10.5205 14.0493 10.1889 14.2939 9.9443C14.5384 9.69979 14.8701 9.56238 15.2159 9.56238Z" fill="black"/>
<path d="M14.3018 17.8158H9.99997C9.75992 17.8158 9.56531 18.0104 9.56531 18.2505V19.5653C9.56531 19.8054 9.75992 20 9.99997 20H14.3018C14.5419 20 14.7365 19.8054 14.7365 19.5653V18.2505C14.7365 18.0104 14.5419 17.8158 14.3018 17.8158Z" fill="black"/>
</svg>
